public/icons/cert.svg

<?xml version="1.0" encoding="utf-8"?><!-- Uploaded to: SVG Repo, www.svgrepo.com, Generator: SVG Repo Mixer Tools -->
<svg width="800px" height="800px" viewBox="0 0 24 24" fill="none" xmlns="http://www.w3.org/2000/svg">
<path d="M9 12L11 14L15 10M12 3L13.9101 4.87147L16.5 4.20577L17.2184 6.78155L19.7942 7.5L19.1285 10.0899L21 12L19.1285 13.9101L19.7942 16.5L17.2184 17.2184L16.5 19.7942L13.9101 19.1285L12 21L10.0899 19.1285L7.5 19.7942L6.78155 17.2184L4.20577 16.5L4.87147 13.9101L3 12L4.87147 10.0899L4.20577 7.5L6.78155 6.78155L7.5 4.20577L10.0899 4.87147L12 3Z" stroke="currentColor" stroke-width="2" stroke-linecap="round" stroke-linejoin="round"/>
</svg>

<svg xmlns="http://www.w3.org/2000/svg" width="800" height="800" fill="none" viewBox="0 0 24 24">
    <path stroke="currentColor" stroke-linecap="round" stroke-linejoin="round" stroke-width="2"
        d="m9 12 2 2 4-4m-3-7 1.91 1.871 2.59-.665.718 2.576 2.576.718-.666 2.59L21 12l-1.872 1.91.666 2.59-2.576.718-.718 2.576-2.59-.666L12 21l-1.91-1.872-2.59.666-.718-2.576-2.576-.718.665-2.59L3 12l1.871-1.91-.665-2.59 2.576-.718.718-2.576 2.59.665z" />
</svg>
